X: 14602
T: Gan Ainm
R: reel
M: 4/4
K: Amajor
ceec ~e2 cA|dBcA BAFA|ceec ~e2 cA|dBcA BcdB|
ceec faec|dBcA BAFA|Bcde f2 ec|ABBc d2 cB||
|:AF~F2 EdcB|A2 AD EFAF|~E3 D EdcB|A2 AD EFAB:|

